_includes/icons/ios-folder.svg

<svg fill="#666" height="50" viewBox="0 0 50 50" width="50" xmlns="http://www.w3.org/2000/svg"><path d="m5 4c-1.6455732 0-3 1.3555411-3 3v9 10 17c0 1.644459 1.3544268 3 3 3h40c1.645063 0 3-1.354937 3-3v-17-10-5c0-1.6450628-1.354937-3-3-3h-27c.08657 0-.03101.000364-.275391-.28125-.244382-.281614-.54519-.7488088-.859375-1.25-.314184-.5011912-.643457-1.0359601-1.058593-1.5058594-.415137-.4698992-.987887-.9628906-1.806641-.9628906zm0 2h9c-.06075 0 .06114.00701.308594.2871094.247457.2801007.548637.7453318.861328 1.2441406s.636507 1.031614 1.042969 1.5c.406461.468386.966036.96875 1.787109.96875h27c.562937 0 1 .437063 1 1v2.1875c-.314892-.11356-.648157-.1875-1-.1875h-40c-.3518425 0-.6851085.07394-1 .1875v-6.1875c0-.5635411.4355732-1 1-1zm0 9h40c.56503 0 1 .43497 1 1v10 17c0 .562937-.437063 1-1 1h-40c-.5644268 0-1-.436459-1-1v-17-10c0-.56503.4349698-1 1-1z"/></svg>

<svg xmlns="http://www.w3.org/2000/svg" viewBox="0 0 50 50" width="50" height="50" fill="#666"><path style="line-height:normal;text-indent:0;text-align:start;text-decoration-line:none;text-decoration-style:solid;text-decoration-color:#000;text-transform:none;block-progression:tb;isolation:auto;mix-blend-mode:normal" d="M 5 4 C 3.3544268 4 2 5.3555411 2 7 L 2 16 L 2 26 L 2 43 C 2 44.644459 3.3544268 46 5 46 L 45 46 C 46.645063 46 48 44.645063 48 43 L 48 26 L 48 16 L 48 11 C 48 9.3549372 46.645063 8 45 8 L 18 8 C 18.08657 8 17.96899 8.000364 17.724609 7.71875 C 17.480227 7.437136 17.179419 6.9699412 16.865234 6.46875 C 16.55105 5.9675588 16.221777 5.4327899 15.806641 4.9628906 C 15.391504 4.4929914 14.818754 4 14 4 L 5 4 z M 5 6 L 14 6 C 13.93925 6 14.06114 6.00701 14.308594 6.2871094 C 14.556051 6.5672101 14.857231 7.0324412 15.169922 7.53125 C 15.482613 8.0300588 15.806429 8.562864 16.212891 9.03125 C 16.619352 9.499636 17.178927 10 18 10 L 45 10 C 45.562937 10 46 10.437063 46 11 L 46 13.1875 C 45.685108 13.07394 45.351843 13 45 13 L 5 13 C 4.6481575 13 4.3148915 13.07394 4 13.1875 L 4 7 C 4 6.4364589 4.4355732 6 5 6 z M 5 15 L 45 15 C 45.56503 15 46 15.43497 46 16 L 46 26 L 46 43 C 46 43.562937 45.562937 44 45 44 L 5 44 C 4.4355732 44 4 43.563541 4 43 L 4 26 L 4 16 C 4 15.43497 4.4349698 15 5 15 z"/></svg>
